packages/astro-components-stencil/src/icons/archive.svg

<svg xmlns="http://www.w3.org/2000/svg" viewBox="0 0 24 24"><g xmlns="http://www.w3.org/2000/svg" id="archive" fill-rule="nonzero">
            <path d="M20.54 5.23l-1.39-1.68C18.88 3.21 18.47 3 18 3H6c-.47 0-.88.21-1.16.55L3.46 5.23C3.17 5.57 3 6.02 3 6.5V19c0 1.1.9 2 2 2h14c1.1 0 2-.9 2-2V6.5c0-.48-.17-.93-.46-1.27zm-8.89 11.92L6.5 12H10v-2h4v2h3.5l-5.15 5.15c-.19.19-.51.19-.7 0zM5.12 5l.81-1h12l.94 1H5.12z"/>
        </g></svg>

<svg width="24" height="24" viewBox="0 0 24 24" fill="none" xmlns="http://www.w3.org/2000/svg">
<path fill-rule="evenodd" clip-rule="evenodd" d="M20.54 5.23L19.15 3.55C18.88 3.21 18.47 3 18 3H6C5.53 3 5.12 3.21 4.84 3.55L3.46 5.23C3.17 5.57 3 6.02 3 6.5V19C3 20.1 3.9 21 5 21H19C20.1 21 21 20.1 21 19V6.5C21 6.02 20.83 5.57 20.54 5.23ZM11.65 17.15L6.5 12H10V10H14V12H17.5L12.35 17.15C12.16 17.34 11.84 17.34 11.65 17.15ZM5.93 4L5.12 5H18.87L17.93 4H5.93Z" fill="black"/>
</svg>
